src/images/logos/discord-logo.svg

<svg width="28px" height="20px" viewBox="0 0 28 20">
    <path d="M10.1883562,0.000194713039 L10.4280822,0.286294719 C6.1130137,1.5243535 4.12328767,3.40525051 4.12328767,3.40525051
    L4.35270038,3.28542664 C4.58786783,3.16503124 4.99562405,2.96214186 5.53767123,2.71479464 C8.10273973,1.59577997 10.140411,1.28626528
    10.9794521,1.21483881 C11.1232877,1.19102999 11.2431507,1.16722116 11.3869863,1.16722116 C12.8493151,0.97675058 14.5034247,0.929132934
    16.2294521,1.11960352 C18.5068493,1.38150057 20.9520548,2.04814761 23.4452055,3.40525051 L23.3970649,3.361877 C23.0789593,3.0818903
    21.1771037,1.50588952 17.4760274,0.38153001 L17.8116438,0.000194713039 L17.9427292,0.00184639851 C18.5860957,0.0201608273
    21.501683,0.23142753 24.5479452,2.50051524 L24.6640654,2.71974926 C25.2656274,3.88519114 28,9.55792649 28,16.3810589
    L27.9602507,16.4438929 C27.6531068,16.9123957 25.5384932,19.8466712 20.6643836,20 L20.0292791,19.2375264 C19.7429151,18.8906993
    19.3986301,18.4695689 19.0821918,18.0714854 C22.2226027,17.1905589 23.4212329,15.2382354 23.4212329,15.2382354 C22.4383562,15.8810737
    21.5034247,16.3334413 20.6643836,16.642956 C19.5362611,17.1135304 18.4506091,17.4364736 17.3874415,17.6316352 L17.1883562,17.6667354
    C14.8869863,18.0952942 12.7773973,17.9762501 10.9794521,17.6429265 C9.6130137,17.3810295 8.43835616,17.0000883 7.45547945,16.6191472
    C6.90410959,16.4048678 6.30479452,16.1429707 5.70547945,15.8096472 C5.63356164,15.7620295 5.56164384,15.7382207 5.48972603,15.6906031
    C5.44178082,15.6667942 5.41780822,15.6429854 5.39383562,15.6191766 L5.24110392,15.5334276 C5.03374715,15.4149415 4.88441781,15.320905
    4.80073567,15.2664533 L4.72260274,15.2144266 C4.72260274,15.2144266 5.87328767,17.1191324 8.91780822,18.0238677 L8.43962174,18.6201218
    C7.8572717,19.3409322 7.31164384,20 7.31164384,20 C2.01369863,19.8333382 0,16.3810589 0,16.3810589 C0,8.71461799 3.45205479,2.50051524
    3.45205479,2.50051524 C6.90410959,-0.0708376233 10.1883562,0.000194713039 10.1883562,0.000194713039 Z M9.51712329,8.88127975 C8.15068493,8.88127975
    7.07191781,10.0717209 7.07191781,11.5240591 C7.07191781,12.9763973 8.17465753,14.1668384 9.51712329,14.1668384 C10.8615223,14.1668384
    11.927455,13.0144889 11.9614902,11.5941252 L11.9623288,11.5240591 C11.9863014,10.0717209 10.8835616,8.88127975 9.51712329,8.88127975 Z
    M18.2671233,8.88127975 C16.9006849,8.88127975 15.8219178,10.0717209 15.8219178,11.5240591 C15.8219178,12.9763973 16.9246575,14.1668384
    18.2671233,14.1668384 C19.6335616,14.1668384 20.7123288,12.9763973 20.7123288,11.5240591 C20.7123288,10.0717209 19.6335616,8.88127975
    18.2671233,8.88127975 Z" fill="#000" fill-rule="nonzero" stroke-width="0"></path>
</svg>

<svg viewBox="0 0 28 20">
  <path
    d="M10.188 0l.24.286c-4.315 1.238-6.305 3.12-6.305 3.12l.23-.12c.235-.121.643-.324 1.185-.571 2.565-1.12 4.602-1.429 5.441-1.5.144-.024.264-.048.408-.048a20.422 20.422 0 014.842-.047c2.278.262 4.723.928 7.216 2.285l-.048-.043c-.318-.28-2.22-1.856-5.921-2.98L17.812 0l.13.002c.644.018 3.56.23 6.606 2.499l.116.219C25.266 3.885 28 9.558 28 16.38l-.04.063c-.307.468-2.422 3.403-7.296 3.556l-.635-.762c-.286-.347-.63-.768-.947-1.167 3.14-.88 4.34-2.833 4.34-2.833a13.754 13.754 0 01-2.758 1.405c-1.128.47-2.213.793-3.277.989l-.199.035c-2.301.428-4.41.31-6.209-.024a20.228 20.228 0 01-3.524-1.024 14.094 14.094 0 01-1.75-.81c-.071-.047-.143-.07-.215-.118a.33.33 0 01-.096-.072l-.153-.086a9.061 9.061 0 01-.44-.267l-.078-.052s1.15 1.905 4.195 2.81l-.478.596C7.857 19.34 7.312 20 7.312 20 2.014 19.833 0 16.381 0 16.381c0-7.666 3.452-13.88 3.452-13.88C6.904-.071 10.188 0 10.188 0zm-.67 8.881c-1.367 0-2.446 1.19-2.446 2.643 0 1.452 1.103 2.643 2.445 2.643 1.345 0 2.41-1.153 2.444-2.573l.001-.07c.024-1.452-1.078-2.643-2.445-2.643zm8.75 0c-1.367 0-2.446 1.19-2.446 2.643 0 1.452 1.103 2.643 2.445 2.643 1.367 0 2.445-1.19 2.445-2.643 0-1.452-1.078-2.643-2.445-2.643z" />
</svg>
